src/pos-icons/eye-off-outline.svg

<svg height="24" viewBox="0 0 24 24" width="24" xmlns="http://www.w3.org/2000/svg"><path d="m2 5.27 1.28-1.27 16.72 16.72-1.27 1.28-3.08-3.08c-1.15.38-2.37.58-3.65.58-5 0-9.27-3.11-11-7.5.69-1.76 1.79-3.31 3.19-4.54zm10 3.73a3 3 0 0 1 3 3c0 .35-.06.69-.17 1l-3.83-3.83c.31-.11.65-.17 1-.17m0-4.5c5 0 9.27 3.11 11 7.5-.82 2.08-2.21 3.88-4 5.19l-1.42-1.43c1.36-.94 2.48-2.22 3.24-3.76-1.65-3.36-5.06-5.5-8.82-5.5-1.09 0-2.16.18-3.16.5l-1.54-1.53c1.44-.62 3.03-.97 4.7-.97m-8.82 7.5c1.65 3.36 5.06 5.5 8.82 5.5.69 0 1.37-.07 2-.21l-2.28-2.29c-1.43-.15-2.57-1.29-2.72-2.72l-3.4-3.41c-.99.85-1.82 1.91-2.42 3.13z"/></svg>

<?xml version="1.0" encoding="UTF-8"?><!DOCTYPE svg PUBLIC "-//W3C//DTD SVG 1.1//EN" "http://www.w3.org/Graphics/SVG/1.1/DTD/svg11.dtd"><svg xmlns="http://www.w3.org/2000/svg" xmlns:xlink="http://www.w3.org/1999/xlink" version="1.1" id="mdi-eye-off-outline" width="24" height="24" viewBox="0 0 24 24"><path d="M2,5.27L3.28,4L20,20.72L18.73,22L15.65,18.92C14.5,19.3 13.28,19.5 12,19.5C7,19.5 2.73,16.39 1,12C1.69,10.24 2.79,8.69 4.19,7.46L2,5.27M12,9A3,3 0 0,1 15,12C15,12.35 14.94,12.69 14.83,13L11,9.17C11.31,9.06 11.65,9 12,9M12,4.5C17,4.5 21.27,7.61 23,12C22.18,14.08 20.79,15.88 19,17.19L17.58,15.76C18.94,14.82 20.06,13.54 20.82,12C19.17,8.64 15.76,6.5 12,6.5C10.91,6.5 9.84,6.68 8.84,7L7.3,5.47C8.74,4.85 10.33,4.5 12,4.5M3.18,12C4.83,15.36 8.24,17.5 12,17.5C12.69,17.5 13.37,17.43 14,17.29L11.72,15C10.29,14.85 9.15,13.71 9,12.28L5.6,8.87C4.61,9.72 3.78,10.78 3.18,12Z" /></svg>
